actions/24/object-group-calligra.svg

<?xml version="1.0" encoding="UTF-8" standalone="no"?>
<svg
   width="24"
   height="24"
   version="1.1"
   id="svg9"
   sodipodi:docname="object-group.svg"
   inkscape:version="1.1.2 (0a00cf5339, 2022-02-04)"
   xmlns:inkscape="http://www.inkscape.org/namespaces/inkscape"
   xmlns:sodipodi="http://sodipodi.sourceforge.net/DTD/sodipodi-0.dtd"
   xmlns="http://www.w3.org/2000/svg"
   xmlns:svg="http://www.w3.org/2000/svg">
  <sodipodi:namedview
     id="namedview11"
     pagecolor="#000000"
     bordercolor="#666666"
     borderopacity="1.0"
     inkscape:pageshadow="2"
     inkscape:pageopacity="0"
     inkscape:pagecheckerboard="0"
     showgrid="false"
     inkscape:zoom="28.416667"
     inkscape:cx="11.982405"
     inkscape:cy="11.964809"
     inkscape:window-width="1596"
     inkscape:window-height="967"
     inkscape:window-x="0"
     inkscape:window-y="29"
     inkscape:window-maximized="1"
     inkscape:current-layer="g7" />
  <defs
     id="defs3">
    <style
       id="current-color-scheme"
       type="text/css">
   .ColorScheme-Text { color:#eeeeec; } .ColorScheme-Highlight { color:#367bf0; } .ColorScheme-NeutralText { color:#ffcc44; } .ColorScheme-PositiveText { color:#3db47e; } .ColorScheme-NegativeText { color:#dd4747; }
  </style>
  </defs>
  <g
     transform="translate(4,4)"
     id="g7">
    <path
       style="fill:currentColor"
       class="ColorScheme-Text"
       d="M 3,1 C 1,1 1,3 1,3 v 10 c 0,2 2,2 2,2 h 10 c 2,0 2,-2 2,-2 V 3 C 15,1 13,1 13,1 Z m 7,1 c 2.209,0 4,1.7909 4,4 0,2.0486435 -1.540273,3.7376321 -3.525794,3.972181 -0.155513,0.018371 0.160449,0 0,0 L 10,9.5562418 V 6.4596921 L 9.5555524,6 V 6 H 6.4944027 v 0 c 0,-0.1283213 -0.4883599,-0.2552315 -0.4765434,-0.3804616 C 6.2094692,3.5888847 7.9192213,2 10,2 Z M 3,7 h 6 v 6 H 3 Z"
       id="path5"
       sodipodi:nodetypes="scscscscsssscccccccssccccc" />
  </g>
</svg>

<svg xmlns="http://www.w3.org/2000/svg" width="24" height="24" version="1.1">
 <defs>
  <style id="current-color-scheme" type="text/css">
   .ColorScheme-Text { color:#eeeeec; } .ColorScheme-Highlight { color:#367bf0; } .ColorScheme-NeutralText { color:#ffcc44; } .ColorScheme-PositiveText { color:#3db47e; } .ColorScheme-NegativeText { color:#dd4747; }
  </style>
 </defs>
 <g transform="translate(4,4)">
  <path style="fill:currentColor" class="ColorScheme-Text" d="M 3,1 C 1,1 1,3 1,3 V 13 C 1,15 3,15 3,15 H 13 C 15,15 15,13 15,13 V 3 C 15,1 13,1 13,1 Z M 10,2 C 12.209,2 14,3.7909 14,6 14,8.2091 12.209,10 10,10 V 6 H 6 C 6,3.7909 7.7909,2 10,2 Z M 3,7 H 9 V 13 H 3 Z"/>
 </g>
</svg>
